src/lib/packages/icons/src/assets/filled/euro.svg

<svg width="24" height="24" viewBox="0 0 24 24" fill="none" xmlns="http://www.w3.org/2000/svg">
<path d="M18.627 18.4919C17.789 18.8289 16.905 19 16 19C13.215 19 10.811 17.361 9.685 15H15C15.552 15 16 14.552 16 14C16 13.448 15.552 13 15 13H9.08C9.033 12.672 9 12.34 9 12C9 11.66 9.033 11.328 9.08 11H15C15.552 11 16 10.552 16 10C16 9.448 15.552 9 15 9H9.685C10.811 6.639 13.215 5 16 5C16.911 5 17.792 5.17304 18.618 5.51404C19.132 5.72604 19.714 5.48105 19.924 4.97205C20.135 4.46105 19.892 3.87702 19.382 3.66602C18.312 3.22502 17.174 3 16 3C12.091 3 8.76499 5.51 7.52499 9H5C4.448 9 4 9.448 4 10C4 10.552 4.448 11 5 11H7.05901C7.02201 11.329 7 11.662 7 12C7 12.338 7.02201 12.671 7.05901 13H5C4.448 13 4 13.448 4 14C4 14.552 4.448 15 5 15H7.52499C8.76499 18.49 12.09 21 16 21C17.163 21 18.297 20.781 19.373 20.348C19.886 20.142 20.134 19.559 19.928 19.047C19.722 18.535 19.138 18.2859 18.627 18.4919Z" fill="currentColor"/>
</svg>

<svg xmlns="http://www.w3.org/2000/svg" width="24" height="24" fill="none"><path fill="currentColor" d="M18.627 18.492A7.01 7.01 0 0 1 16 19c-2.785 0-5.189-1.639-6.315-4H15a1 1 0 0 0 0-2H9.08A7.026 7.026 0 0 1 9 12c0-.34.033-.672.08-1H15a1 1 0 0 0 0-2H9.685c1.126-2.361 3.53-4 6.315-4 .911 0 1.792.173 2.618.514a1 1 0 0 0 .764-1.848A8.832 8.832 0 0 0 16 3c-3.909 0-7.235 2.51-8.475 6H5a1 1 0 0 0 0 2h2.059A8.935 8.935 0 0 0 7 12c0 .338.022.671.059 1H5a1 1 0 0 0 0 2h2.525c1.24 3.49 4.565 6 8.475 6a8.99 8.99 0 0 0 3.373-.652 1 1 0 1 0-.746-1.856Z"/></svg>
